X: 14
T: Maggie In The Woods
Z: tziguk
S: https://thesession.org/tunes/291#setting53459
R: polka
M: 2/4
L: 1/8
K: Gmaj
|:GD G>A|Be ef/e/|dB AG/A/|BA AB/A/|
GD G>A|Be ef/e/|dB AB/A/|1G2 GB/A/:|2G2GB/d/||
|:g>f ed|Be ef/e/|dB AG/A/|BA AB/d/|
gf ed|Be eg/e/|dB AB/A/|1G2 GB/d/:|2G2GB/A/||

%-------------------- TUNE SEPARATOR --------------------%

